X:1
T:Title
%%score { 1 | ( 2 3 ) }
L:1/8
Q:1/4=100
M:4/4
K:D
V:1 treble nm="Grand Piano"
V:2 bass 
V:3 bass 
V:1
 [A,DF]>[D=F] [A,D^F]>[D=F] [A,D^F]2 [A,DF]2 | [A,DF]2 [A,DF]4 z2 | %2
w: George~Bennard * * * * *||
 [A,DF]>[D=F] [A,D^F]>[D=F] [A,D^F]2 [A,=CF]2 | [A,CG]6 z2 | %4
w: ||
 [A,CG]>[CF] [A,CG]>[CF] [A,CG]2 [A,CF]2 | [A,CG]2 [A,CG]4 z2 | %6
w: ||
 [A,CG]>[CF] [A,CG]>[CF] [A,EG]2 [B,D^G]2 | [A,CA]6 z2 | %8
w: ||
 [A,DF]>[D=F] [A,D^F]>[D=F] [A,D^F]2 [A,DF]2 | [A,DF]2 [A,DF]4 z2 | %10
w: ||
 [A,FA]>[=F^G] [D^FA]>[=FG] [B,^FA]2 [B,^DF]2 | [B,EG]6 z2 | %12
w: ||
 [G,B,D]>[^A,C] [G,B,D]>[A,C] [G,B,D]2 [B,E]2 | [DF]2 [A,DF]4 z2 | %14
w: ||
 [A,DF]>[D=F] [A,D^F]>[DG] [A,DF]2[K:bass] [^G,CE]2 | [F,D]6 z2 | [Fd]>[Fc] [Fd]>[Fc] [Fd]2 [FB]2 | %17
w: |||
 [Gc]2 [Gc]4 z2 | [GB]>[GB] [GB]>[GB] [Ac]2 [GB]2 | [FA]6 z2 | [Fd]>[Fc] [Fd]>[Fc] [Fd]2 [FA]2 | %21
w: ||||
 B2 d6 | d>d d>d e2 c2 |[M:3/4] [Fd]6 |] %24
w: |||
V:2
 z z/ ^G,/ z z/ G,/ D,2 A,,2 | D,2 A,,2 D,2 A,,2 | z z/ ^G,/ z z/ G,/ D,2 ^D,2 | E,2 A,,2 E,2 z2 | %4
 z z/ A,/ z z/ A,/ E,2 A,,2 | E,2 A,,2 E,2 A,,2 | z z/ A,/ z z/ A,/ E,2 A,,2 | C,2 A,,2 C,2 z2 | %8
 z z/ ^G,/ z z/ G,/ D,2 A,,2 | D,2 A,,2 D,2 A,,2 | z z/ D/ z z/ D/ ^D,2 B,,2 | E,2 G,2 E,2 z2 | %12
 z z/ G,/ z z/ G,/ D,2 G,2 | A,2 F,2 D,2 A,,2 | z z/ ^G,/ z z/ B,/ A,,2 A,,2 | D,2 A,,2 D,2 z2 | %16
 [D,A,]>[D,A,] [A,,A,]>[A,,A,] [D,A,]2 [A,,A,]2 | [E,A,]2 [A,,A,]4 z2 | %18
 [E,A,]>[E,A,] [A,,A,]>[A,,A,] [E,A,]2 [A,,A,]2 | [D,A,]6 z2 | %20
 [D,A,]>[D,A,] [D,A,]>[D,A,] [D,A,]2 [D,D]2 | [G,DG]2 [^G,B,=F]6 | %22
 [A,F]>[A,DF] [A,DF]>[A,DF] [A,CG]2 [A,EG]2 |[M:3/4][K:bass] [D,D]6 |] %24
V:3
 D,2 A,,2 z4 | x8 | D,2 A,,2 z4 | x8 | E,2 A,,2 z4 | x8 | E,2 A,,2 z4 | x8 | D,2 A,,2 z4 | x8 | %10
 D,2 F,2 z4 | x8 | G,,2 B,,2 z4 | x8 | A,,2 D,2 z4 | x8 | x8 | x8 | x8 | x8 | x8 | x8 | x8 | %23
[M:3/4][K:bass] x6 |] %24

